assets/icons/solid/lari-sign.svg

<svg xmlns="http://www.w3.org/2000/svg" viewBox="0 0 384 512"><!--! Font Awesome Pro 6.2.0 by @fontawesome - https://fontawesome.com License - https://fontawesome.com/license (Commercial License) Copyright 2022 Fonticons, Inc. --><path d="M144 32c17.7 0 32 14.3 32 32V96.7c5.3-.4 10.6-.7 16-.7s10.7 .2 16 .7V64c0-17.7 14.3-32 32-32s32 14.3 32 32v49.4c54.9 25.2 95.8 75.5 108.2 136.2c3.5 17.3-7.7 34.2-25 37.7s-34.2-7.7-37.7-25c-6.1-29.9-22.5-55.9-45.4-74.3V256c0 17.7-14.3 32-32 32s-32-14.3-32-32V161c-5.2-.7-10.6-1-16-1s-10.8 .3-16 1v95c0 17.7-14.3 32-32 32s-32-14.3-32-32V188.1C82.7 211.5 64 247.6 64 288c0 70.7 57.3 128 128 128H352c17.7 0 32 14.3 32 32s-14.3 32-32 32H192 32c-17.7 0-32-14.3-32-32s14.3-32 32-32H48.9C18.5 382 0 337.2 0 288c0-77.5 45.9-144.3 112-174.6V64c0-17.7 14.3-32 32-32z"/></svg>

<svg xmlns="http://www.w3.org/2000/svg" viewBox="0 0 384 512"><!--! Font Awesome Free 6.1.2 by @fontawesome - https://fontawesome.com License - https://fontawesome.com/license/free (Icons: CC BY 4.0, Fonts: SIL OFL 1.1, Code: MIT License) Copyright 2022 Fonticons, Inc. --><path d="M144 32C161.7 32 176 46.33 176 64V96.66C181.3 96.22 186.6 96 192 96C197.4 96 202.7 96.22 208 96.66V64C208 46.33 222.3 32 240 32C257.7 32 272 46.33 272 64V113.4C326.9 138.6 367.8 188.9 380.2 249.6C383.7 266.1 372.5 283.8 355.2 287.4C337.8 290.9 320.1 279.7 317.4 262.4C311.4 232.5 294.9 206.4 272 188.1V256C272 273.7 257.7 288 240 288C222.3 288 208 273.7 208 256V160.1C202.8 160.3 197.4 160 192 160C186.6 160 181.2 160.3 176 160.1V256C176 273.7 161.7 288 144 288C126.3 288 112 273.7 112 256V188.1C82.74 211.5 64 247.6 64 288C64 358.7 121.3 416 192 416H352C369.7 416 384 430.3 384 448C384 465.7 369.7 480 352 480H32C14.33 480 0 465.7 0 448C0 430.3 14.33 416 32 416H48.89C18.49 382 0 337.2 0 288C0 210.5 45.9 143.7 112 113.4V64C112 46.33 126.3 32 144 32V32z"/></svg>
